packages/icons/svg/Outline/people.svg

<svg fill="none" height="24" viewBox="0 0 24 24" width="24" xmlns="http://www.w3.org/2000/svg"><path clip-rule="evenodd" d="m18 10c0-.551-.448-1-1-1s-1 .449-1 1 .448 1 1 1 1-.449 1-1zm2-.00006c0 1.65396-1.346 2.99996-3 2.99996s-3-1.346-3-2.99996c0-1.65401 1.346-3.00001 3-3.00001s3 1.346 3 3.00001zm-9-2.99987c0-1.103-.897-2-1.99998-2-1.103 0-2 .897-2 2s.897 2 2 2c1.10298 0 1.99998-.897 1.99998-2zm2-.00007c0 2.206-1.794 4-4 4s-4-1.794-4-4 1.794-4 4-4 4 1.794 4 4zm.94 8.0459c.869-.672 1.939-1.046 3.06-1.046 2.757 0 5 2.243 5 5 0 .552-.447 1-1 1s-1-.448-1-1c0-1.654-1.346-3-3-3-.683 0-1.332.234-1.856.649.544.996.856 2.138.856 3.351 0 .552-.447 1-1 1s-1-.448-1-1c0-2.757-2.243-5-5-5s-5 2.243-5 5c0 .552-.447 1-1 1s-1-.448-1-1c0-3.86 3.141-7 7-7 1.927 0 3.673.783 4.94 2.046z" fill="#6b7280" fill-rule="evenodd"/></svg>

<svg width="24" height="24" viewBox="0 0 24 24" fill="none" xmlns="http://www.w3.org/2000/svg">
<g id="Icon/Outline/people">
<path id="Mask" fill-rule="evenodd" clip-rule="evenodd" d="M18 10C18 9.449 17.552 9 17 9C16.448 9 16 9.449 16 10C16 10.551 16.448 11 17 11C17.552 11 18 10.551 18 10ZM20 10C20 11.654 18.654 13 17 13C15.346 13 14 11.654 14 10C14 8.346 15.346 7 17 7C18.654 7 20 8.346 20 10ZM11 7C11 5.897 10.103 5 9 5C7.897 5 7 5.897 7 7C7 8.103 7.897 9 9 9C10.103 9 11 8.103 11 7ZM13 7C13 9.206 11.206 11 9 11C6.794 11 5 9.206 5 7C5 4.794 6.794 3 9 3C11.206 3 13 4.794 13 7ZM13.94 15.046C14.809 14.374 15.879 14 17 14C19.757 14 22 16.243 22 19C22 19.552 21.553 20 21 20C20.447 20 20 19.552 20 19C20 17.346 18.654 16 17 16C16.317 16 15.668 16.234 15.144 16.649C15.688 17.645 16 18.787 16 20C16 20.552 15.553 21 15 21C14.447 21 14 20.552 14 20C14 17.243 11.757 15 9 15C6.243 15 4 17.243 4 20C4 20.552 3.553 21 3 21C2.447 21 2 20.552 2 20C2 16.14 5.141 13 9 13C10.927 13 12.673 13.783 13.94 15.046Z" fill="#000000"/>
</g>
</svg>
